images/vuejs-logo.svg

<svg xmlns="http://www.w3.org/2000/svg" viewBox="0 0 1300 1300" xmlns:v="https://vecta.io/nano"><g fill="none" stroke-width="2"><path stroke="#9ca4ae" vector-effect="non-scaling-stroke" d="M1000.18 134.99l-217.17.02q-.7 0-1.06.61L646.64 370.11a.38.38 0 0 1-.64.02q-1.73-2.56-3.55-5.71-66.02-114.65-132-228.92a.97.96 75 0 0-.84-.49L292.27 135"/><path stroke="#b2dbc3" vector-effect="non-scaling-stroke" d="M292.27 135l-235.66.01a.25.25 0 0 0-.21.38L645.69 1156.6a.56.56 0 0 0 .86.14q.4-.36.76-.97 294.31-510.18 588.6-1020.16a.4.4 0 0 0-.35-.6l-235.38-.02"/><path stroke="#4e8072" vector-effect="non-scaling-stroke" d="M292.27 135L645.7 747.46a.61.61 0 0 0 1.06 0l353.42-612.47"/></g><path fill="#fff" d="M0 0h1300v1300H0V0zm1000.18 134.99l-217.17.02q-.7 0-1.06.61L646.64 370.11a.38.38 0 0 1-.64.02q-1.73-2.56-3.55-5.71-66.02-114.65-132-228.92a.97.96 75 0 0-.84-.49L292.27 135l-235.66.01a.25.25 0 0 0-.21.38L645.69 1156.6a.56.56 0 0 0 .86.14q.4-.36.76-.97 294.31-510.18 588.6-1020.16a.4.4 0 0 0-.35-.6l-235.38-.02z"/><path fill="#64b686" d="M292.27 135L645.7 747.46a.61.61 0 0 0 1.06 0l353.42-612.47 235.38.02a.4.4 0 0 1 .35.6q-294.29 509.98-588.6 1020.16-.36.61-.76.97a.56.56 0 0 1-.86-.14L56.4 135.39a.25.25 0 0 1 .21-.38l235.66-.01z"/><path fill="#38495d" d="M292.27 135l217.34.01a.97.96 75 0 1 .84.49q65.98 114.27 132 228.92 1.82 3.15 3.55 5.71a.38.38 0 0 0 .64-.02l135.31-234.49q.36-.61 1.06-.61l217.17-.02-353.42 612.47a.61.61 0 0 1-1.06 0L292.27 135z"/></svg>

<?xml version="1.0" encoding="UTF-8" standalone="no"?>
<!DOCTYPE svg PUBLIC "-//W3C//DTD SVG 1.1//EN" "http://www.w3.org/Graphics/SVG/1.1/DTD/svg11.dtd">
<svg xmlns="http://www.w3.org/2000/svg" version="1.1" viewBox="0.00 0.00 1300.00 1300.00">
<g stroke-width="2.00" fill="none" stroke-linecap="butt">
<path stroke="#9ca4ae" vector-effect="non-scaling-stroke" d="
  M 1000.18 134.99
  L 783.01 135.01
  Q 782.31 135.01 781.95 135.62
  L 646.64 370.11
  A 0.38 0.38 0.0 0 1 646.00 370.13
  Q 644.27 367.57 642.45 364.42
  Q 576.43 249.77 510.45 135.50
  A 0.97 0.96 75.0 0 0 509.61 135.01
  L 292.27 135.00"
/>
<path stroke="#b2dbc3" vector-effect="non-scaling-stroke" d="
  M 292.27 135.00
  L 56.61 135.01
  A 0.25 0.25 0.0 0 0 56.40 135.39
  L 645.69 1156.60
  A 0.56 0.56 0.0 0 0 646.55 1156.74
  Q 646.95 1156.38 647.31 1155.77
  Q 941.62 645.59 1235.91 135.61
  A 0.40 0.40 0.0 0 0 1235.56 135.01
  L 1000.18 134.99"
/>
<path stroke="#4e8072" vector-effect="non-scaling-stroke" d="
  M 292.27 135.00
  L 645.70 747.46
  A 0.61 0.61 0.0 0 0 646.76 747.46
  L 1000.18 134.99"
/>
</g>
<path fill="#ffffff" d="
  M 0.00 0.00
  L 1300.00 0.00
  L 1300.00 1300.00
  L 0.00 1300.00
  L 0.00 0.00
  Z
  M 1000.18 134.99
  L 783.01 135.01
  Q 782.31 135.01 781.95 135.62
  L 646.64 370.11
  A 0.38 0.38 0.0 0 1 646.00 370.13
  Q 644.27 367.57 642.45 364.42
  Q 576.43 249.77 510.45 135.50
  A 0.97 0.96 75.0 0 0 509.61 135.01
  L 292.27 135.00
  L 56.61 135.01
  A 0.25 0.25 0.0 0 0 56.40 135.39
  L 645.69 1156.60
  A 0.56 0.56 0.0 0 0 646.55 1156.74
  Q 646.95 1156.38 647.31 1155.77
  Q 941.62 645.59 1235.91 135.61
  A 0.40 0.40 0.0 0 0 1235.56 135.01
  L 1000.18 134.99
  Z"
/>
<path fill="#64b686" d="
  M 292.27 135.00
  L 645.70 747.46
  A 0.61 0.61 0.0 0 0 646.76 747.46
  L 1000.18 134.99
  L 1235.56 135.01
  A 0.40 0.40 0.0 0 1 1235.91 135.61
  Q 941.62 645.59 647.31 1155.77
  Q 646.95 1156.38 646.55 1156.74
  A 0.56 0.56 0.0 0 1 645.69 1156.60
  L 56.40 135.39
  A 0.25 0.25 0.0 0 1 56.61 135.01
  L 292.27 135.00
  Z"
/>
<path fill="#38495d" d="
  M 292.27 135.00
  L 509.61 135.01
  A 0.97 0.96 75.0 0 1 510.45 135.50
  Q 576.43 249.77 642.45 364.42
  Q 644.27 367.57 646.00 370.13
  A 0.38 0.38 0.0 0 0 646.64 370.11
  L 781.95 135.62
  Q 782.31 135.01 783.01 135.01
  L 1000.18 134.99
  L 646.76 747.46
  A 0.61 0.61 0.0 0 1 645.70 747.46
  L 292.27 135.00
  Z"
/>
</svg>
